X:255
T:Three Captains. VWMLa.255
%%VWML:Anon2-3049-p170-0
F:http://www.vwml.org/record/Anon2/3049/p170
S:Anon. MS, late 18thC, Vaughan Williams Mem. Library
O:England;Yorkshire
Z:vmp/efdss.Simon Wilson. Reviewed PJH 2008.
M:6/8
L:1/8
Q:3/8=120
K:G
|:G3 !turn!B>AB|c2A F2D|\
G3 !turn!B>AB|d2B G2B|c3 ecA|\
B3 dBG|1A2B c2B|ABG FED:|2AcB AGF|G3 G2z||
g3 d2c|B2A G3|!turn!g3 g>fg|afd d3|\
g3 bge|f3 afd|
egf ed^c|d3 d3|\
c3 ecA|B3 def|gfe dcB|ABG !D.C.!FED|]
